packages/merlin-www-assets/imports/wired/logos/brand-header-logo.svg

<svg viewBox="0 0 365 73" xmlns="http://www.w3.org/2000/svg"><g fill="#030304"><path d="m126.9 53.3v8.4h-34.8v-8.4h12.5v-33.6h-12.5v-8.4h34.8v8.4h-12.5v33.6z"/><path d="m67.8 11.3h-9.6l-6.9 39.9h-.1l-8-37c-.5-2.5-1.3-3.1-3.7-3.1h-5.3c-2.3 0-3.2.6-3.7 3.1l-8 37h-.2l-6.8-39.9h-10.3l9.9 47.9c.4 2.1 1.2 2.6 3.5 2.6h6.8c2.3 0 3.1-.5 3.5-2.7l7.5-34.7h.2l7.5 34.7c.5 2.2 1.2 2.7 3.5 2.7h6.7c2.4 0 3.1-.5 3.5-2.6zm5.2 61.7h-73v-73h73z"/><path d="m193.4 48.8a105.8 105.8 0 0 0 .9 12.9h10c-.3-2.7-.6-7.2-.8-13.6s-2.6-8.6-7.8-9.6v-.2c5.8-.9 8.3-3.7 8.3-12.6 0-7.4-1.2-10.1-3.2-12.1s-4.1-2.2-8-2.2h-30.7v50.3h10.4v-19.6h14.4c3 0 4.2.2 5 1s1.4 1.7 1.5 5.7m-20.9-14.9v-14h16.5c2.3 0 3 .2 3.4.6s1.4 1.8 1.4 6.2-.7 5.8-1.5 6.5-1.1.7-3.4.7zm46.5 39.1h-73v-73h73z"/><path d="m308.1 11.3v50.4h24.8c7.1 0 11-1 14.1-3.7s5.3-9 5.3-21.4-1.7-18.3-5.3-21.4-6.9-3.7-14.1-3.7h-24.8zm33.9 25.2c0 10.8-.9 13.6-2.8 15.1s-3.3 1.5-7 1.5h-13.7v-33.2h13.7c3.8 0 5.4.2 7 1.5s2.8 4.3 2.8 15.2m23 36.4h-73v-73h73z"/><path d="m232.4 19.7v-8.4h42.9v16.2h-9v-7.8h-17.4v12h13.8v8.1h-13.8v13.5h17.8v-8.8h9.1v17.2h-43.4v-8.4h6.8v-33.6z"/></g></svg>

<svg xmlns="http://www.w3.org/2000/svg" viewBox="0 0 365 73"><title>Untitled-1</title><polygon points="126.9 53.3 126.9 61.7 92.1 61.7 92.1 53.3 104.6 53.3 104.6 19.7 92.1 19.7 92.1 11.3 126.9 11.3 126.9 19.7 114.4 19.7 114.4 53.3 126.9 53.3" fill="#030304"/><path d="M67.8,11.3H58.2L51.3,51.2H51.2l-8-37c-0.5-2.5-1.3-3.1-3.7-3.1H34.2c-2.3,0-3.2.6-3.7,3.1l-8,37H22.3L15.5,11.3H5.2l9.9,47.9c0.4,2.1,1.2,2.6,3.5,2.6h6.8c2.3,0,3.1-.5,3.5-2.7l7.5-34.7h0.2l7.5,34.7c0.5,2.2,1.2,2.7,3.5,2.7h6.7c2.4,0,3.1-.5,3.5-2.6ZM73,73H0V0H73V73Z" fill="#030304"/><path d="M193.4,48.8a105.8,105.8,0,0,0,.9,12.9h10c-0.3-2.7-.6-7.2-0.8-13.6s-2.6-8.6-7.8-9.6V38.3c5.8-.9,8.3-3.7,8.3-12.6,0-7.4-1.2-10.1-3.2-12.1s-4.1-2.2-8-2.2H162.1V61.7h10.4V42.1h14.4c3,0,4.2.2,5,1s1.4,1.7,1.5,5.7M172.5,33.9v-14H189c2.3,0,3,.2,3.4.6s1.4,1.8,1.4,6.2-0.7,5.8-1.5,6.5-1.1.7-3.4,0.7H172.5ZM219,73H146V0h73V73Z" fill="#030304"/><path d="M308.1,11.3V61.7h24.8c7.1,0,11-1,14.1-3.7s5.3-9,5.3-21.4-1.7-18.3-5.3-21.4-6.9-3.7-14.1-3.7H308.1ZM342,36.5c0,10.8-.9,13.6-2.8,15.1s-3.3,1.5-7,1.5H318.5V19.9h13.7c3.8,0,5.4.2,7,1.5s2.8,4.3,2.8,15.2M365,73H292V0h73V73Z" fill="#030304"/><polygon points="232.4 19.7 232.4 11.3 275.3 11.3 275.3 27.5 266.3 27.5 266.3 19.7 248.9 19.7 248.9 31.7 262.7 31.7 262.7 39.8 248.9 39.8 248.9 53.3 266.7 53.3 266.7 44.5 275.8 44.5 275.8 61.7 232.4 61.7 232.4 53.3 239.2 53.3 239.2 19.7 232.4 19.7" fill="#030304"/></svg>
